X: 1
T: Eileen Curran
M: 4/4
L: 1/8
R: reel
K: Gdor
|:BAGF DFGB|AFcF dFcA|BAGF DFGA|BABc dgga|
|bgaf gfde|fdcB AFGA |BAGF DFGA|1 (3Bcd cA BGGA:|2 (3Bcd cA BGG^f|
|:g2 g^f gbag|=f2 fe fgaf|g2 g^f ~g3 a|bga=f dgga|
|bgaf gfde|fdcB AFGA|BAGF DFGA|1 (3Bcd cA BGG^f:|2 BdcA BGG2|
